X:0633
T:Peggy Perkins.
M:2/4
L:1/16
Q:1/4=104
I: :: ::
N:variant repeat added - bar 8 is printed |d2d2 d4::
Z:Jack Campin * www.campin.me.uk * 2009
K:D
A2|dedA fgfd|a2a2 a2f2|gage fgfd|e2e2    e2A2|
   dedA fgfd|a2a2 a2f2|gage faec|d2d2 [1 d2 :|\
                                      [2 d4 ||
   ABcd efge|f2d2 d4  |gage fafd|cdec    A4  |
   ABcd efge|f2d2 d4  |fgae cdec|d2d2    d4 :|
<end>
<start>
